X: 32620
T: Play That Lovely Tune
R: waltz
M: 3/4
K: Eminor
M:4/4
L:1/8
B,E GG GE/G/A G/F/|EE EE E2 G2|B,EGG GE/G/ AG/F/|EE EE E2 E2||
BB AB c2 B>B|AB/A/ EF G4|dd cd e2 d2|cB Ad/c/ B4|
BA GB d6 B|BA GB A4|G>F EG B>c B2 G2|BA GF E4||

